X:175
T:Sweet Jessy TS.175
T:Jessie, The Flower of Dunblane,aka TS.175
M:6/8
L:1/8
Q:1/2=35
S:Thomas Sands’ MS,1810,Lincolnshire
R:Air
C:R.A.Smith (attributed)
N:Another setting of TS.170
O:England;Lincolnshire
Z:vmp.Ruairidh Greig, 2011
K:D
(d/e/)|f>gf e<ae|d>cd ec(d/B/)|A>BG FAd|d>ef {f}e2(d/e/)|
f>gf e<af|d>cd ec(d/B/)|A>BG FAd|e>Bcd2:|
|:f|f>de f>ba|f>de f<de|e>cd e>af|e>cB {B}A2(A/B/)|
d>fe (fde)|f>af g<ef|(g>ab) afd|e>Bcd2{dc}{ec}{dB}|
A>BG F<A (de)|f>af g>ef|(gab) afd|e>Bcd2″rpt.sign added”:|]

